Adwaita/scalable/mimetypes/application-x-firmware-symbolic.svg

<?xml version="1.0" encoding="UTF-8"?>
<svg height="16px" viewBox="0 0 16 16" width="16px" xmlns="http://www.w3.org/2000/svg">
    <g fill="#2e3436">
        <path d="m 6 7 c 0.675781 0.023438 1.035156 0.695312 1.507812 1.09375 c 0.453126 0.484375 0.980469 0.910156 1.378907 1.441406 c 0.308593 0.539063 -0.039063 1.117188 -0.46875 1.460938 c -0.625 0.605468 -1.214844 1.253906 -1.863281 1.835937 c -0.472657 0.277344 -1.03125 0.132813 -1.554688 0.167969 c 0 -2 0 -4 0 -6 z m 0 0"/>
        <path d="m 5.019531 4 v -3 c 0 -0.550781 -0.445312 -1 -1 -1 c -0.550781 0 -1 0.449219 -1 1 v 3 c 0 0.550781 0.449219 1 1 1 c 0.554688 0 1 -0.449219 1 -1 z m -2.019531 3.003906 c 0.003906 -0.882812 -0.058594 -1.347656 0.230469 -1.632812 c 0.011719 -0.011719 0.023437 -0.023438 0.035156 -0.035156 c 0.007813 -0.011719 0.019531 -0.027344 0.027344 -0.039063 c 0.210937 -0.253906 0.648437 -0.332031 1.308593 -0.296875 h 0.023438 h 0.027344 c 2.511718 0.007812 5.019531 -0.015625 7.523437 0.011719 l -0.0625 -0.003907 c 0.535157 0.039063 0.960938 0.613282 0.894531 1.160157 c -0.003906 0.015625 -0.003906 0.03125 -0.007812 0.046875 v 0.066406 c -0.015625 1.34375 0.027344 2.660156 -0.023438 3.964844 l 0.007813 -0.082032 c -0.0625 0.511719 -0.621094 0.90625 -1.160156 0.84375 c -0.015625 -0.003906 -0.03125 -0.003906 -0.046875 -0.007812 h -0.777344 c -0.550781 0 -1 0.449219 -1 1 s 0.449219 1 1 1 h 0.707031 l -0.117187 -0.007812 c 1.574218 0.1875 3.175781 -0.945313 3.378906 -2.582032 c 0.003906 -0.015625 0.003906 -0.03125 0.003906 -0.046875 c 0.003906 -0.011719 0.003906 -0.023437 0.003906 -0.035156 c 0.050782 -1.355469 0.007813 -2.707031 0.023438 -4.023437 l -0.007812 0.109374 c 0.203124 -1.632812 -1.035157 -3.277343 -2.734376 -3.402343 c -0.011718 0 -0.023437 0 -0.035156 0 c -0.007812 0 -0.015625 0 -0.027344 0 c -2.515624 -0.023438 -5.03125 -0.003907 -7.539062 -0.011719 h 0.050781 c -0.855469 -0.042969 -2.125 0.019531 -2.953125 1.023438 l 0.066406 -0.070313 c -0.964843 0.957031 -0.816406 2.320313 -0.820312 3.042969 c 0 0.359375 0.1875 0.691406 0.496094 0.871094 c 0.308594 0.179687 0.691406 0.179687 1.003906 0.003906 c 0.308594 -0.179688 0.5 -0.511719 0.5 -0.867188 z m 6 -3.003906 v -3 c 0 -0.550781 -0.449219 -1 -1 -1 s -1 0.449219 -1 1 v 3 c 0 0.550781 0.449219 1 1 1 s 1 -0.449219 1 -1 z m 4 0 v -3 c 0 -0.550781 -0.449219 -1 -1 -1 s -1 0.449219 -1 1 v 3 c 0 0.550781 0.449219 1 1 1 s 1 -0.449219 1 -1 z m -7 5 h -1 c -2.214844 0 -4 1.785156 -4 4 v 2 c 0 0.550781 0.449219 1 1 1 s 1 -0.449219 1 -1 v -2 c 0 -1.097656 0.902344 -2 2 -2 h 1 c 0.550781 0 1 -0.449219 1 -1 s -0.449219 -1 -1 -1 z m 0 0"/>
    </g>
</svg>

<?xml version="1.0" encoding="UTF-8"?>
<svg xmlns="http://www.w3.org/2000/svg" xmlns:xlink="http://www.w3.org/1999/xlink" width="16px" height="16px" viewBox="0 0 16 16" version="1.1">
<g id="surface7943">
<path style=" stroke:none;fill-rule:nonzero;fill:rgb(18.039216%,20.392157%,21.176471%);fill-opacity:1;" d="M 6 7 C 6.675781 7.023438 7.035156 7.695312 7.507812 8.09375 C 7.960938 8.578125 8.488281 9.003906 8.886719 9.535156 C 9.195312 10.074219 8.847656 10.652344 8.417969 10.996094 C 7.792969 11.601562 7.203125 12.25 6.554688 12.832031 C 6.082031 13.109375 5.523438 12.964844 5 13 C 5 11 5 9 5 7 C 5.332031 7 5.667969 7 6 7 Z M 6 7 "/>
<path style=" stroke:none;fill-rule:nonzero;fill:rgb(18.039216%,20.392157%,21.176471%);fill-opacity:1;" d="M 5.019531 4 L 5.019531 1 C 5.019531 0.449219 4.574219 0 4.019531 0 C 3.46875 0 3.019531 0.449219 3.019531 1 L 3.019531 4 C 3.019531 4.550781 3.46875 5 4.019531 5 C 4.574219 5 5.019531 4.550781 5.019531 4 Z M 3 7.003906 C 3.003906 6.121094 2.941406 5.65625 3.230469 5.371094 C 3.242188 5.359375 3.253906 5.347656 3.265625 5.335938 C 3.273438 5.324219 3.285156 5.308594 3.292969 5.296875 C 3.503906 5.042969 3.941406 4.964844 4.601562 5 C 4.609375 5 4.617188 5 4.625 5 C 4.632812 5 4.644531 5 4.652344 5 C 7.164062 5.007812 9.671875 4.984375 12.175781 5.011719 L 12.113281 5.007812 C 12.648438 5.046875 13.074219 5.621094 13.007812 6.167969 C 13.003906 6.183594 13.003906 6.199219 13 6.214844 C 13 6.238281 13 6.257812 13 6.28125 C 12.984375 7.625 13.027344 8.941406 12.976562 10.246094 L 12.984375 10.164062 C 12.921875 10.675781 12.363281 11.070312 11.824219 11.007812 C 11.808594 11.003906 11.792969 11.003906 11.777344 11 L 11 11 C 10.449219 11 10 11.449219 10 12 C 10 12.550781 10.449219 13 11 13 L 11.707031 13 L 11.589844 12.992188 C 13.164062 13.179688 14.765625 12.046875 14.96875 10.410156 C 14.972656 10.394531 14.972656 10.378906 14.972656 10.363281 C 14.976562 10.351562 14.976562 10.339844 14.976562 10.328125 C 15.027344 8.972656 14.984375 7.621094 15 6.304688 L 14.992188 6.414062 C 15.195312 4.78125 13.957031 3.136719 12.257812 3.011719 C 12.246094 3.011719 12.234375 3.011719 12.222656 3.011719 C 12.214844 3.011719 12.207031 3.011719 12.195312 3.011719 C 9.679688 2.988281 7.164062 3.007812 4.65625 3 L 4.707031 3 C 3.851562 2.957031 2.582031 3.019531 1.753906 4.023438 L 1.820312 3.953125 C 0.855469 4.910156 1.003906 6.273438 1 6.996094 C 1 7.355469 1.1875 7.6875 1.496094 7.867188 C 1.804688 8.046875 2.1875 8.046875 2.5 7.871094 C 2.808594 7.691406 3 7.359375 3 7.003906 Z M 9 4 L 9 1 C 9 0.449219 8.550781 0 8 0 C 7.449219 0 7 0.449219 7 1 L 7 4 C 7 4.550781 7.449219 5 8 5 C 8.550781 5 9 4.550781 9 4 Z M 13 4 L 13 1 C 13 0.449219 12.550781 0 12 0 C 11.449219 0 11 0.449219 11 1 L 11 4 C 11 4.550781 11.449219 5 12 5 C 12.550781 5 13 4.550781 13 4 Z M 6 9 L 5 9 C 2.785156 9 1 10.785156 1 13 L 1 15 C 1 15.550781 1.449219 16 2 16 C 2.550781 16 3 15.550781 3 15 L 3 13 C 3 11.902344 3.902344 11 5 11 L 6 11 C 6.550781 11 7 10.550781 7 10 C 7 9.449219 6.550781 9 6 9 Z M 6 9 "/>
</g>
</svg>
